src/assets/duotone/Frame7.svg

<svg width="24" height="24" viewBox="0 0 24 24"  xmlns="http://www.w3.org/2000/svg">
<path opacity="0.4" d="M16.1898 2H7.81978C4.17978 2 2.00977 4.17 2.00977 7.81V16.18C2.00977 19.82 4.17978 21.99 7.81978 21.99H16.1898C19.8298 21.99 21.9998 19.82 21.9998 16.18V7.81C21.9998 4.17 19.8298 2 16.1898 2Z" />
<path d="M11 5.5V7.5C11 7.78 10.78 8 10.5 8H9C8.45 8 8 8.45 8 9V10.5C8 10.78 7.78 11 7.5 11H5.5C5.22 11 5 10.78 5 10.5V9C5 6.79 6.79 5 9 5H10.5C10.78 5 11 5.22 11 5.5Z" />
<path d="M13 18.5V16.5C13 16.22 13.22 16 13.5 16H15C15.55 16 16 15.55 16 15V13.5C16 13.22 16.22 13 16.5 13H18.5C18.78 13 19 13.22 19 13.5V15C19 17.21 17.21 19 15 19H13.5C13.22 19 13 18.78 13 18.5Z" />
</svg>

<?xml version="1.0" encoding="UTF-8"?>
<svg width="24" height="24" viewBox="0 0 24 24" xmlns="http://www.w3.org/2000/svg">
 <path d="m16.19 2h-8.37c-3.64 0-5.81 2.17-5.81 5.81v8.37c0 3.64 2.17 5.81 5.81 5.81h8.37c3.64 0 5.81-2.17 5.81-5.81v-8.37c0-3.64-2.17-5.81-5.81-5.81z" opacity=".4"/>
 <path d="M11 5.5V7.5C11 7.78 10.78 8 10.5 8H9C8.45 8 8 8.45 8 9V10.5C8 10.78 7.78 11 7.5 11H5.5C5.22 11 5 10.78 5 10.5V9C5 6.79 6.79 5 9 5H10.5C10.78 5 11 5.22 11 5.5Z"/>
 <path d="m13 18.5v-2c0-0.28 0.22-0.5 0.5-0.5h1.5c0.55 0 1-0.45 1-1v-1.5c0-0.28 0.22-0.5 0.5-0.5h2c0.28 0 0.5 0.22 0.5 0.5v1.5c0 2.21-1.79 4-4 4h-1.5c-0.28 0-0.5-0.22-0.5-0.5z"/>
</svg>
